azure-docs/api_emotion.svg

<?xml version="1.0" encoding="UTF-8"?>
<svg width="512px" height="512px" viewBox="0 0 512 512" version="1.1" xmlns="http://www.w3.org/2000/svg" xmlns:xlink="http://www.w3.org/1999/xlink">
    <!-- Generator: Sketch 46.2 (44496) - http://www.bohemiancoding.com/sketch -->
    <title>Emotion-wht-bluBG-512p</title>
    <desc>Created with Sketch.</desc>
    <defs></defs>
    <g id="PRODUCTION-ICONS" stroke="none" stroke-width="1" fill="none" fill-rule="evenodd">
        <g id="Emotion-wht-bluBG-512p">
            <g id="Emotion-API">
                <rect id="Rectangle-3-Copy-4" fill="#0063B1" x="0" y="0" width="512" height="512"></rect>
                <path d="M256,375.466667 C186.88,375.466667 130.844444,319.431111 130.844444,250.311111 C130.844444,181.191111 186.88,125.155556 256,125.155556 C325.12,125.155556 381.155556,181.191111 381.155556,250.311111 C381.155556,319.431111 325.12,375.466667 256,375.466667 M256,102.4 C174.313244,102.4 108.088889,168.624356 108.088889,250.311111 C108.088889,331.997867 174.313244,398.222222 256,398.222222 C337.686756,398.222222 403.911111,331.997867 403.911111,250.311111 C403.911111,168.624356 337.686756,102.4 256,102.4" id="Fill-1" fill="#FFFFFF"></path>
                <path d="M256,273.066667 C271.712711,273.066667 284.444444,285.7984 284.444444,301.511111 C284.444444,317.223822 271.712711,329.955556 256,329.955556 C240.287289,329.955556 227.555556,317.223822 227.555556,301.511111 C227.555556,285.7984 240.287289,273.066667 256,273.066667 Z M201.955556,193.422222 C212.952178,193.422222 221.866667,202.336711 221.866667,213.333333 C221.866667,224.329956 212.952178,233.244444 201.955556,233.244444 C190.958933,233.244444 182.044444,224.329956 182.044444,213.333333 C182.044444,202.336711 190.958933,193.422222 201.955556,193.422222 Z M310.044444,193.422222 C321.041067,193.422222 329.955556,202.336711 329.955556,213.333333 C329.955556,224.329956 321.041067,233.244444 310.044444,233.244444 C299.047822,233.244444 290.133333,224.329956 290.133333,213.333333 C290.133333,202.336711 299.047822,193.422222 310.044444,193.422222 Z" id="Combined-Shape" fill="#FFFFFF"></path>
            </g>
        </g>
    </g>
</svg>

<svg width="512" height="512" xmlns="http://www.w3.org/2000/svg"><g fill="none" fill-rule="evenodd"><path fill="#0063B1" d="M0 0h512v512H0z"/><path d="M256 375.467c-69.12 0-125.156-56.036-125.156-125.156S186.88 125.156 256 125.156 381.156 181.19 381.156 250.31 325.12 375.467 256 375.467m0-273.067c-81.687 0-147.911 66.224-147.911 147.911S174.313 398.222 256 398.222s147.911-66.224 147.911-147.91c0-81.688-66.224-147.912-147.911-147.912" fill="#FFF"/><path d="M256 273.067c15.713 0 28.444 12.731 28.444 28.444S271.713 329.956 256 329.956s-28.444-12.732-28.444-28.445c0-15.713 12.731-28.444 28.444-28.444zm-54.044-79.645c10.996 0 19.91 8.915 19.91 19.911 0 10.997-8.914 19.911-19.91 19.911-10.997 0-19.912-8.914-19.912-19.91 0-10.997 8.915-19.912 19.912-19.912zm108.088 0c10.997 0 19.912 8.915 19.912 19.911 0 10.997-8.915 19.911-19.912 19.911-10.996 0-19.91-8.914-19.91-19.91 0-10.997 8.914-19.912 19.91-19.912z" fill="#FFF"/></g></svg>
